X: 34125
T: Reel Du Bonhomme
R: reel
M: 4/4
K: Amixolydian
ee|:efec A2ee|efec A2ef|e2d2 c2B2|B2A2 A2ee|
efec A2ee|efec A2ef|e2d2 c2B2|1 A6 ee:|2 A8||
K: Dmaj
|:A2FA B2AG|FAde f2ef|gbge cABc|dcdf bafd|
A2FA B2AG|FAde f2ef|gbge cABc|1 d2f2d2B2:|2 d2f2d2 AB/c/||
d2c2 B2A2|F4 F2 (3DED|CEA,C E2DC|DFA,D F2 AB/c/|
d2c2 B2A2|F4 F2 (3DED|CEA,C E2DC|1 DdAF D2 AB/c/:|2 DdAF D2 e2||

